X: 8
T: The Cock And The Hen
R: slip jig
M: 9/8
L: 1/8
K: Bmin
|:B3 BAB f2A| B3 BAB dBA|B3 BAB f2g|af/e/d edB dBA|
B3 BAB f2A| B3 BAB dBA|B3 BAB f2g|afd edB dBA||
|:afd def g3 | afd edB dBA | afd def g2e | fed edB dBA |
afd def g3 | afd edB dBA| afd def g2e | fed edB dBA ||


Tune 93	Setting 12642

